svg/u1f62a.svg

<svg viewBox="0 0 128 128" xmlns="http://www.w3.org/2000/svg">
  <g id="gold">
    <radialGradient id="face_1_" cx="63.6" cy="2880.8999" gradientTransform="matrix(1 0 0 1 0 -2818)" gradientUnits="userSpaceOnUse" r="56.9597">
      <stop offset="0.5" stop-color="#FDE030"/>
      <stop offset="0.92" stop-color="#F7C02B"/>
      <stop offset="1" stop-color="#F4A223"/>
    </radialGradient>
    <path id="face" d="M63.6,118.8c-27.9,0-58-17.5-58-55.9S35.7,7,63.6,7c15.5,0,29.8,5.1,40.4,14.4 c11.5,10.2,17.6,24.6,17.6,41.5s-6.1,31.2-17.6,41.4C93.4,113.6,79,118.8,63.6,118.8z" fill="url(#face_1_)"/>
    <path d="M111.49,29.67c5.33,8.6,8.11,18.84,8.11,30.23c0,16.9-6.1,31.2-17.6,41.4 c-10.6,9.3-25,14.5-40.4,14.5c-18.06,0-37-7.35-48.18-22.94c10.76,17.66,31,25.94,50.18,25.94c15.4,0,29.8-5.2,40.4-14.5 c11.5-10.2,17.6-24.5,17.6-41.4C121.6,50.16,118.13,38.84,111.49,29.67z" fill="#EB8F00"/>
  </g>
  <g id="facial_expressions">
    <g id="sleepy-face">
      <g id="eyes">
        <g id="peepers">
          <path d="M49.61,54.7l-0.2,0.2c-0.15,0.18-0.33,0.35-0.51,0.5l-0.69,0.57c-0.29,0.22-0.62,0.46-1,0.7 c-0.39,0.25-0.79,0.48-1.2,0.69c-0.91,0.46-1.88,0.77-2.88,0.94c-0.52,0.09-1.04,0.13-1.57,0.13h-0.47 c-0.13,0.01-0.27,0.01-0.4,0c-0.16,0-0.45-0.06-0.71-0.09c-0.5-0.09-1-0.22-1.49-0.37c-0.47-0.16-0.93-0.35-1.38-0.57 c-0.41-0.21-0.81-0.44-1.2-0.69c-0.6-0.39-1.17-0.83-1.7-1.32l-0.63-0.58l-0.25-0.24c-1.28-1.17-3.21-1.24-4.57-0.17 c-0.97,0.76-1.28,2.09-0.76,3.21l0.14,0.3c0.13,0.29,0.28,0.57,0.45,0.84c0.59,1.02,1.32,1.94,2.16,2.76 c0.59,0.58,1.23,1.1,1.92,1.56c0.79,0.55,1.63,1.02,2.52,1.4c0.96,0.43,1.97,0.77,3,1c0.55,0.1,1.06,0.2,1.73,0.26 c0.31,0,0.68,0.06,0.84,0.06h0.77c1.12-0.02,2.24-0.13,3.34-0.35c1.03-0.23,2.04-0.57,3-1c0.88-0.38,1.73-0.85,2.52-1.4 c0.68-0.46,1.32-0.98,1.91-1.56c0.52-0.46,1-0.95,1.44-1.48l0.47-0.66l0.4-0.64c0.15-0.24,0.28-0.5,0.39-0.76 c0.07-0.17,0.11-0.25,0.11-0.25c0.6-1.43-0.08-3.08-1.51-3.68c-0.1-0.04-0.2-0.08-0.3-0.1C52.02,53.44,50.59,53.75,49.61,54.7z" fill="#422B0D"/>
          <path d="M94.51,54.7l-0.2,0.2c-0.15,0.18-0.33,0.35-0.51,0.5l-0.69,0.57c-0.29,0.22-0.62,0.46-1,0.7 c-0.39,0.25-0.79,0.48-1.2,0.69c-0.44,0.22-0.9,0.41-1.37,0.57c-0.49,0.15-0.99,0.28-1.5,0.37c-0.52,0.09-1.04,0.13-1.57,0.13 H86c-0.14,0.01-0.27,0.01-0.41,0c-0.15,0-0.44-0.06-0.7-0.09c-0.51-0.09-1.01-0.22-1.5-0.37c-0.48-0.17-0.94-0.38-1.39-0.61 c-0.41-0.21-0.81-0.44-1.2-0.69c-0.6-0.39-1.17-0.83-1.7-1.32l-0.63-0.58l-0.25-0.24c-1.28-1.17-3.21-1.24-4.57-0.17 c-0.99,0.76-1.32,2.12-0.78,3.25c0,0,0,0.11,0.15,0.3c0.13,0.29,0.28,0.57,0.44,0.84c1.03,1.73,2.42,3.2,4.09,4.32 c0.79,0.55,1.63,1.02,2.51,1.4c0.98,0.44,2,0.77,3.05,1c0.55,0.1,1.06,0.2,1.73,0.26c0.31,0,0.67,0.06,0.83,0.06h0.78 c1.12-0.02,2.23-0.13,3.33-0.35c1.05-0.23,2.07-0.56,3.05-1c0.88-0.38,1.72-0.85,2.51-1.4c0.69-0.46,1.33-0.98,1.92-1.56 c0.49-0.46,0.95-0.95,1.37-1.48l0.48-0.66l0.4-0.64c0.15-0.24,0.28-0.5,0.39-0.76c0.07-0.17,0.11-0.25,0.11-0.25 c0.6-1.43-0.08-3.08-1.51-3.68c-0.1-0.04-0.2-0.08-0.3-0.1C96.92,53.44,95.49,53.75,94.51,54.7z" fill="#422B0D"/>
        </g>
      </g>
      <g id="prop">
        <path d="M111.38,103.88c21.29-4.71,14.81-41.1-21.71-36.3c-6.34,0.84-13,5-17.75,9.19 c-1.16,1-0.65,3,0.9,2.89C88.05,78.62,87.6,109.13,111.38,103.88z" fill="#4FC3F7"/>
      </g>
    </g>
    <path d="M112.65,74.51c0.61,0.52,1.07,1.18,1.35,1.92c0.28,0.75,0.16,1.58-0.31,2.23 c-0.71,0.89-2,1-3.17,0.84c-3.13-0.31-6.14-1.32-8.83-2.94c-1.53-0.92-3.33-2.5-2.91-4.53c0.29-1.35,1.61-1.67,2.83-1.69 C105.67,70.34,109.6,71.82,112.65,74.51z" fill="#B3E5FC"/>
    <g id="eyebrows">
      <path d="M35.64,38.27h0.13c2.14-0.5,2.06-3.72-0.38-3.64c-1.97,0.1-3.91,0.5-5.76,1.18 c-4.98,1.8-9.09,5.45-11.46,10.19c-0.43,0.92-0.03,2.02,0.89,2.44c0.82,0.38,1.79,0.11,2.3-0.63 C24.9,43.1,29.94,39.74,35.64,38.27z" fill="#422B0D"/>
    </g>
    <g id="eyebrows-2">
      <path d="M91.49,38.27h-0.13c-1-0.12-1.72-1.02-1.61-2.03c0.11-0.99,1-1.7,1.99-1.61 c1.97,0.1,3.9,0.5,5.75,1.18c5,1.8,9.12,5.44,11.51,10.19c0.43,0.92,0.03,2.02-0.89,2.44c-0.82,0.38-1.79,0.11-2.3-0.63 C102.26,43.1,97.21,39.73,91.49,38.27z" fill="#422B0D"/>
    </g>
    <path id="mouth" d="M55.7,99.3c-3.83-0.07-6.88-3.24-6.81-7.07c0.02-1.29,0.41-2.55,1.11-3.63 c3.1-4.8,8-7.3,14-7.3s10.9,2.5,14,7.3c1.39,2.1,1.5,4.79,0.3,7c-1.19,2.22-3.48,3.64-6,3.7c-0.79,0.02-1.57-0.11-2.3-0.4 c-1.93-0.67-3.96-1.01-6-1c-2.04-0.02-4.07,0.32-6,1C57.26,99.17,56.48,99.31,55.7,99.3z" fill="#422B0D"/>
  </g>
</svg>

<svg viewBox="0 0 128 128" xmlns="http://www.w3.org/2000/svg">
  <defs>
    <radialGradient id="face_1_" cx="63.6" cy="62.8999" gradientUnits="userSpaceOnUse" r="56.9597">
      <stop offset="0.5" stop-color="#FDE030"/>
      <stop offset="0.92" stop-color="#F7C02B"/>
      <stop offset="1" stop-color="#F4A223"/>
    </radialGradient>
  </defs>
  <path id="face" d="M63.6,118.8 C35.7,118.8 5.6,101.3 5.6,62.9 C5.6,24.5 35.7,7 63.6,7 C79.1,7 93.4,12.1 104,21.4 C115.5,31.6 121.6,46 121.6,62.9 C121.6,79.8 115.5,94.1 104,104.3 C93.4,113.6 79,118.8 63.6,118.8 Z" fill="url(#face_1_)"/>
  <path d="M111.49,29.67 C116.82,38.27 119.6,48.51 119.6,59.9 C119.6,76.8 113.5,91.1 102,101.3 C91.4,110.6 77,115.8 61.6,115.8 C43.54,115.8 24.6,108.45 13.42,92.86 C24.18,110.52 44.42,118.8 63.6,118.8 C79,118.8 93.4,113.6 104,104.3 C115.5,94.1 121.6,79.8 121.6,62.9 C121.6,50.16 118.13,38.84 111.49,29.67 Z" fill="#EB8F00"/>
  <path d="M49.61,54.7 L49.41,54.9 C49.26,55.08 49.08,55.25 48.9,55.4 L48.21,55.97 C47.92,56.19 47.59,56.43 47.21,56.67 C46.82,56.92 46.42,57.15 46.01,57.36 C45.1,57.82 44.13,58.13 43.13,58.3 C42.61,58.39 42.09,58.43 41.56,58.43 L41.09,58.43 C40.96,58.44 40.82,58.44 40.69,58.43 C40.53,58.43 40.24,58.37 39.98,58.34 C39.48,58.25 38.98,58.12 38.49,57.97 C38.02,57.81 37.56,57.62 37.11,57.4 C36.7,57.19 36.3,56.96 35.91,56.71 C35.31,56.32 34.74,55.88 34.21,55.39 L33.58,54.81 L33.33,54.57 C32.05,53.4 30.12,53.33 28.76,54.4 C27.79,55.16 27.48,56.49 28,57.61 L28.14,57.91 C28.27,58.2 28.42,58.48 28.59,58.75 C29.18,59.77 29.91,60.69 30.75,61.51 C31.34,62.09 31.98,62.61 32.67,63.07 C33.46,63.62 34.3,64.09 35.19,64.47 C36.15,64.9 37.16,65.24 38.19,65.47 C38.74,65.57 39.25,65.67 39.92,65.73 C40.23,65.73 40.6,65.79 40.76,65.79 L41.53,65.79 C42.65,65.77 43.77,65.66 44.87,65.44 C45.9,65.21 46.91,64.87 47.87,64.44 C48.75,64.06 49.6,63.59 50.39,63.04 C51.07,62.58 51.71,62.06 52.3,61.48 C52.82,61.02 53.3,60.53 53.74,60 L54.21,59.34 L54.61,58.7 C54.76,58.46 54.89,58.2 55,57.94 C55.07,57.77 55.11,57.69 55.11,57.69 C55.71,56.26 55.03,54.61 53.6,54.01 C53.5,53.97 53.4,53.93 53.3,53.91 C52.02,53.44 50.59,53.75 49.61,54.7 Z" fill="#422B0D"/>
  <path d="M94.51,54.7 L94.31,54.9 C94.16,55.08 93.98,55.25 93.8,55.4 L93.11,55.97 C92.82,56.19 92.49,56.43 92.11,56.67 C91.72,56.92 91.32,57.15 90.91,57.36 C90.47,57.58 90.01,57.77 89.54,57.93 C89.05,58.08 88.55,58.21 88.04,58.3 C87.52,58.39 87,58.43 86.47,58.43 L86,58.43 C85.86,58.44 85.73,58.44 85.59,58.43 C85.44,58.43 85.15,58.37 84.89,58.34 C84.38,58.25 83.88,58.12 83.39,57.97 C82.91,57.8 82.45,57.59 82,57.36 C81.59,57.15 81.19,56.92 80.8,56.67 C80.2,56.28 79.63,55.84 79.1,55.35 L78.47,54.77 L78.22,54.53 C76.94,53.36 75.01,53.29 73.65,54.36 C72.66,55.12 72.33,56.48 72.87,57.61 C72.87,57.61 72.87,57.72 73.02,57.91 C73.15,58.2 73.3,58.48 73.46,58.75 C74.49,60.48 75.88,61.95 77.55,63.07 C78.34,63.62 79.18,64.09 80.06,64.47 C81.04,64.91 82.06,65.24 83.11,65.47 C83.66,65.57 84.17,65.67 84.84,65.73 C85.15,65.73 85.51,65.79 85.67,65.79 L86.45,65.79 C87.57,65.77 88.68,65.66 89.78,65.44 C90.83,65.21 91.85,64.88 92.83,64.44 C93.71,64.06 94.55,63.59 95.34,63.04 C96.03,62.58 96.67,62.06 97.26,61.48 C97.75,61.02 98.21,60.53 98.63,60 L99.11,59.34 L99.51,58.7 C99.66,58.46 99.79,58.2 99.9,57.94 C99.97,57.77 100.01,57.69 100.01,57.69 C100.61,56.26 99.93,54.61 98.5,54.01 C98.4,53.97 98.3,53.93 98.2,53.91 C96.92,53.44 95.49,53.75 94.51,54.7 Z" fill="#422B0D"/>
  <path d="M111.38,103.88 C132.67,99.17 126.19,62.78 89.67,67.58 C83.33,68.42 76.67,72.58 71.92,76.77 C70.76,77.77 71.27,79.77 72.82,79.66 C88.05,78.62 87.6,109.13 111.38,103.88 Z" fill="#4FC3F7"/>
  <path d="M112.65,74.51 C113.26,75.03 113.72,75.69 114,76.43 C114.28,77.18 114.16,78.01 113.69,78.66 C112.98,79.55 111.69,79.66 110.52,79.5 C107.39,79.19 104.38,78.18 101.69,76.56 C100.16,75.64 98.36,74.06 98.78,72.03 C99.07,70.68 100.39,70.36 101.61,70.34 C105.67,70.34 109.6,71.82 112.65,74.51 Z" fill="#B3E5FC"/>
  <path d="M35.64,38.27 L35.77,38.27 C37.91,37.77 37.83,34.55 35.39,34.63 C33.42,34.73 31.48,35.13 29.63,35.81 C24.65,37.61 20.54,41.26 18.17,46 C17.74,46.92 18.14,48.02 19.06,48.44 C19.88,48.82 20.85,48.55 21.36,47.81 C24.9,43.1 29.94,39.74 35.64,38.27 Z" fill="#422B0D"/>
  <path d="M91.49,38.27 L91.36,38.27 C90.36,38.15 89.64,37.25 89.75,36.24 C89.86,35.25 90.75,34.54 91.74,34.63 C93.71,34.73 95.64,35.13 97.49,35.81 C102.49,37.61 106.61,41.25 109,46 C109.43,46.92 109.03,48.02 108.11,48.44 C107.29,48.82 106.32,48.55 105.81,47.81 C102.26,43.1 97.21,39.73 91.49,38.27 Z" fill="#422B0D"/>
  <path id="mouth" d="M55.7,99.3 C51.87,99.23 48.82,96.06 48.89,92.23 C48.91,90.94 49.3,89.68 50,88.6 C53.1,83.8 58,81.3 64,81.3 C70,81.3 74.9,83.8 78,88.6 C79.39,90.7 79.5,93.39 78.3,95.6 C77.11,97.82 74.82,99.24 72.3,99.3 C71.51,99.32 70.73,99.19 70,98.9 C68.07,98.23 66.04,97.89 64,97.9 C61.96,97.88 59.93,98.22 58,98.9 C57.26,99.17 56.48,99.31 55.7,99.3 Z" fill="#422B0D"/>
</svg>
